X: 1100
T: Prince George's March.
%R: march
B: Henry Playford "Apollo's Banquet", London 1687 (5th Edition)
F: https://archive.org/details/apollosbanquetco01rugg
Z: 2017 John Chambers <jc:trillian.mit.edu>
M: C|
L: 1/8
K: C
% - - - - - - - - - -
|:\
c2cd e2ef | g2g2 g2ef | g2g2 a2gf | e3^f g2G2 |\
c2cd e2ef | g2g2 g2ef | g2g2 agfe | d2G2 d4- :|
|:\
d2ef f2f2 | f2cd e2dA | g2g2 c3c | f3f fedc |\
Bcd2 G2d2 | g2fe a2ae | fdge d3c | Hc8 |]
% - - - - - - - - - -

%%sep 1 1 500
%%sep 1 1 500

